Numix-GalliumOS/22/devices/gnome-dev-pcmcia.svg

<?xml version="1.0" encoding="UTF-8" standalone="no"?>
<svg
   xmlns:dc="http://purl.org/dc/elements/1.1/"
   xmlns:cc="http://creativecommons.org/ns#"
   xmlns:rdf="http://www.w3.org/1999/02/22-rdf-syntax-ns#"
   xmlns:svg="http://www.w3.org/2000/svg"
   xmlns="http://www.w3.org/2000/svg"
   xmlns:xlink="http://www.w3.org/1999/xlink"
   xmlns:sodipodi="http://sodipodi.sourceforge.net/DTD/sodipodi-0.dtd"
   xmlns:inkscape="http://www.inkscape.org/namespaces/inkscape"
   width="22"
   height="22"
   viewBox="0 0 22 22"
   id="svg1591"
   version="1.1"
   inkscape:version="0.91 r"
   sodipodi:docname="gnome-dev-pcmcia.svg">
  <metadata
     id="metadata1691">
    <rdf:RDF>
      <cc:Work
         rdf:about="">
        <dc:format>image/svg+xml</dc:format>
        <dc:type
           rdf:resource="http://purl.org/dc/dcmitype/StillImage" />
      </cc:Work>
    </rdf:RDF>
  </metadata>
  <sodipodi:namedview
     pagecolor="#ffffff"
     bordercolor="#666666"
     borderopacity="1"
     objecttolerance="10"
     gridtolerance="10"
     guidetolerance="10"
     inkscape:pageopacity="0"
     inkscape:pageshadow="2"
     inkscape:window-width="640"
     inkscape:window-height="480"
     id="namedview1689" />
  <defs
     id="defs1593">
    <clipPath
       id="clip1">
      <rect
         width="22"
         height="22"
         id="rect1596" />
    </clipPath>
    <filter
       width="100%"
       x="0"
       y="0"
       height="100%"
       filterUnits="objectBoundingBox"
       id="alpha">
      <feColorMatrix
         values="0 0 0 0 1 0 0 0 0 1 0 0 0 0 1 0 0 0 1 0"
         in="SourceGraphic"
         type="matrix"
         id="feColorMatrix1599" />
    </filter>
    <g
       style="clip-path:url(#clip1)"
       id="surface6"
       clip-path="url(#clip1)">
      <path
         style="fill:url(#radial0)"
         d="M 4.191406 18.792969 L 0 18.792969 L 0 16.042969 L 4.191406 16.042969 Z "
         id="path1602" />
      <path
         style="fill:url(#radial1)"
         d="M 15.515625 16.042969 L 19.707031 16.042969 L 19.707031 18.792969 L 15.515625 18.792969 Z "
         id="path1604" />
      <path
         style="fill:url(#linear0)"
         d="M 4.191406 16.042969 L 15.515625 16.042969 L 15.515625 18.792969 L 4.191406 18.792969 Z "
         id="path1606" />
    </g>
    <linearGradient
       id="linear1"
       y1="13"
       y2="38"
       gradientUnits="userSpaceOnUse"
       x2="0">
      <stop
         offset="0"
         style="stop-color:#fff;stop-opacity:.6"
         id="stop1609" />
      <stop
         offset="1"
         style="stop-color:#fff;stop-opacity:0"
         id="stop1611" />
    </linearGradient>
    <linearGradient
       gradientTransform="scale(.45833)"
       id="linear3"
       y1="24"
       y2="28"
       gradientUnits="userSpaceOnUse"
       x2="0">
      <stop
         offset="0"
         style="stop-color:#ecd562"
         id="stop1614" />
      <stop
         offset="1"
         style="stop-color:#df8122"
         id="stop1616" />
    </linearGradient>
    <linearGradient
       gradientTransform="matrix(.41933 0 0 .34375 -.41933 2.29167)"
       id="linear0"
       y1="48.001"
       y2="40"
       gradientUnits="userSpaceOnUse"
       x2="0">
      <stop
         offset="0"
         style="stop-color:#000;stop-opacity:0"
         id="stop1619" />
      <stop
         offset=".5"
         style="stop-color:#000"
         id="stop1621" />
      <stop
         offset="1"
         style="stop-color:#000;stop-opacity:0"
         id="stop1623" />
    </linearGradient>
    <linearGradient
       id="linear2"
       y1="17"
       y2="18"
       gradientUnits="userSpaceOnUse"
       x2="0">
      <stop
         offset="0"
         style="stop-color:#fdfdfd"
         id="stop1626" />
      <stop
         offset="1"
         style="stop-color:#9f9f9f"
         id="stop1628" />
    </linearGradient>
    <mask
       id="mask0">
      <g
         style="filter:url(#alpha)"
         id="g1631">
        <rect
           width="22"
           x="0"
           y="0"
           height="22"
           style="fill:#000;fill-opacity:.302"
           id="rect1633" />
      </g>
    </mask>
    <radialGradient
       cx="9.286"
       cy="18.037"
       gradientTransform="matrix(2.65854 -.03734 .0168 1.19584 -15.70336 .10714)"
       id="radial3"
       r="17"
       gradientUnits="userSpaceOnUse">
      <stop
         offset="0"
         style="stop-color:#efefef"
         id="stop1636" />
      <stop
         offset="1"
         style="stop-color:#c8c8c8"
         id="stop1638" />
    </radialGradient>
    <radialGradient
       cx="12.156"
       cy="40.48"
       gradientTransform="matrix(1.81157 -.03214 .02008 1.13174 -10.67818 -10.72976)"
       id="radial2"
       r="22"
       gradientUnits="userSpaceOnUse">
      <stop
         offset="0"
         style="stop-color:#efefef"
         id="stop1641" />
      <stop
         offset="1"
         style="stop-color:#c8c8c8"
         id="stop1643" />
    </radialGradient>
    <radialGradient
       cx="1"
       cy="44"
       gradientTransform="matrix(.83865 0 0 .275 14.67636 5.31667)"
       id="radial1"
       r="5"
       gradientUnits="userSpaceOnUse">
      <stop
         offset="0"
         style="stop-color:#000"
         id="stop1646" />
      <stop
         offset="1"
         style="stop-color:#000;stop-opacity:0"
         id="stop1648" />
    </radialGradient>
    <radialGradient
       cx="1"
       cy="44"
       gradientTransform="matrix(-.83865 0 0 -.275 5.03189 29.51667)"
       id="radial0"
       r="5"
       gradientUnits="userSpaceOnUse">
      <stop
         offset="0"
         style="stop-color:#000"
         id="stop1651" />
      <stop
         offset="1"
         style="stop-color:#000;stop-opacity:0"
         id="stop1653" />
    </radialGradient>
  </defs>
  <use
     style="mask:url(#mask0)"
     xlink:href="#surface6"
     id="use1655"
     mask="url(#mask0)" />
  <g
     style="stroke-linecap:round"
     id="g1657">
    <path
       style="fill:url(#radial2);stroke:#8c8c8c"
       d="M 3.502841 12.502841 C 2.948864 12.502841 2.497159 12.946023 2.497159 13.5 L 2.497159 37.5 C 2.497159 38.053977 2.948864 38.497159 3.502841 38.497159 L 38.497159 38.497159 C 39.051136 38.497159 39.502841 38.053977 39.502841 37.5 C 39.485795 36.997159 39.997159 36.511364 40.5 36.502841 L 44.497159 36.502841 C 45.051136 36.502841 45.502841 36.051136 45.502841 35.497159 L 45.502841 15.502841 C 45.502841 14.948864 45.051136 14.497159 44.497159 14.497159 L 40.5 14.497159 C 39.997159 14.505682 39.528409 14.002841 39.502841 13.5 C 39.502841 12.946023 39.051136 12.502841 38.497159 12.502841 Z "
       transform="scale(.45833)"
       id="path1659" />
    <path
       style="fill:none;stroke:url(#linear1)"
       d="M 3.502841 13.465909 C 3.46875 13.465909 3.46875 13.465909 3.46875 13.5 L 3.46875 37.5 C 3.46875 37.534091 3.46875 37.534091 3.502841 37.534091 L 38.497159 37.534091 C 38.514205 37.534091 38.53125 37.534091 38.53125 37.534091 C 38.53125 37.525568 38.53125 37.517045 38.53125 37.5 C 38.522727 36.920455 38.786932 36.451705 39.127841 36.127841 C 39.46875 35.786932 39.911932 35.548295 40.465909 35.53125 C 40.482955 35.53125 40.491477 35.53125 40.5 35.53125 L 44.497159 35.53125 C 44.53125 35.53125 44.53125 35.53125 44.53125 35.497159 L 44.53125 15.502841 C 44.53125 15.46875 44.53125 15.46875 44.497159 15.46875 L 40.5 15.46875 C 39.920455 15.46875 39.460227 15.213068 39.127841 14.872159 C 38.795455 14.539773 38.565341 14.096591 38.53125 13.559659 C 38.53125 13.542614 38.53125 13.517045 38.53125 13.5 C 38.53125 13.465909 38.53125 13.465909 38.497159 13.465909 Z "
       transform="scale(.45833)"
       id="path1661" />
    <path
       style="fill:url(#radial3);stroke:url(#linear2)"
       d="M 3.502841 16.5 L 35.497159 16.5 C 36.051136 16.5 36.502841 16.943182 36.502841 17.497159 L 36.502841 33.502841 C 36.502841 34.056818 36.051136 34.5 35.497159 34.5 L 3.502841 34.5 "
       transform="scale(.45833)"
       id="path1663" />
  </g>
  <g
     style="fill:#d6b943"
     id="g1665">
    <path
       d="M 3.667969 5.972656 L 8.25 5.972656 L 8.25 6.417969 L 3.667969 6.417969 Z "
       id="path1667" />
    <path
       d="M 3.667969 16.972656 L 8.25 16.972656 L 8.25 17.417969 L 3.667969 17.417969 Z "
       id="path1669" />
  </g>
  <path
     style="fill:#606060"
     d="M 5.042969 8.707031 L 15.125 8.707031 C 15.378906 8.707031 15.582031 8.914062 15.582031 9.167969 L 15.582031 14.207031 C 15.582031 14.460938 15.378906 14.667969 15.125 14.667969 L 5.042969 14.667969 C 4.789062 14.667969 4.582031 14.460938 4.582031 14.207031 L 4.582031 9.167969 C 4.582031 8.914062 4.789062 8.707031 5.042969 8.707031 Z "
     id="path1671" />
  <path
     style="fill:url(#linear3)"
     d="M 7.332031 11.457031 L 15.125 11.457031 L 15.125 12.375 L 7.332031 12.375 Z "
     id="path1673" />
  <g
     style="fill:#fff"
     id="g1675">
    <path
       d="M 7.332031 12.847656 L 7.996094 12.847656 C 8.140625 12.847656 8.25 12.882812 8.320312 12.953125 C 8.394531 13.023438 8.429688 13.125 8.429688 13.257812 C 8.429688 13.394531 8.390625 13.5 8.3125 13.574219 C 8.234375 13.652344 8.113281 13.6875 7.953125 13.6875 L 7.734375 13.6875 L 7.734375 14.183594 L 7.332031 14.183594 L 7.332031 12.847656 M 7.734375 13.417969 L 7.832031 13.417969 C 7.910156 13.417969 7.964844 13.402344 7.996094 13.375 C 8.027344 13.347656 8.039062 13.3125 8.039062 13.269531 C 8.039062 13.226562 8.027344 13.191406 8 13.164062 C 7.972656 13.132812 7.921875 13.121094 7.847656 13.121094 L 7.734375 13.121094 L 7.734375 13.417969 "
       id="path1677" />
    <path
       d="M 9.5 13.636719 L 9.847656 13.746094 C 9.824219 13.847656 9.789062 13.933594 9.738281 14.003906 C 9.6875 14.070312 9.625 14.121094 9.550781 14.15625 C 9.476562 14.191406 9.378906 14.207031 9.265625 14.207031 C 9.125 14.207031 9.007812 14.1875 8.917969 14.144531 C 8.832031 14.101562 8.753906 14.027344 8.691406 13.921875 C 8.625 13.816406 8.59375 13.679688 8.59375 13.511719 C 8.59375 13.292969 8.648438 13.121094 8.761719 13.003906 C 8.875 12.882812 9.039062 12.824219 9.246094 12.824219 C 9.410156 12.824219 9.535156 12.859375 9.628906 12.925781 C 9.722656 12.996094 9.792969 13.097656 9.835938 13.242188 L 9.484375 13.320312 C 9.472656 13.28125 9.460938 13.25 9.445312 13.230469 C 9.421875 13.199219 9.394531 13.175781 9.363281 13.160156 C 9.332031 13.140625 9.296875 13.132812 9.253906 13.132812 C 9.164062 13.132812 9.09375 13.171875 9.046875 13.246094 C 9.011719 13.304688 8.992188 13.390625 8.992188 13.511719 C 8.992188 13.660156 9.015625 13.761719 9.058594 13.816406 C 9.101562 13.871094 9.164062 13.898438 9.242188 13.898438 C 9.316406 13.898438 9.375 13.875 9.414062 13.832031 C 9.453125 13.789062 9.480469 13.722656 9.5 13.636719 "
       id="path1679" />
    <path
       d="M 10.039062 12.847656 L 10.5625 12.847656 L 10.765625 13.660156 L 10.96875 12.847656 L 11.492188 12.847656 L 11.492188 14.183594 L 11.164062 14.183594 L 11.164062 13.164062 L 10.910156 14.183594 L 10.617188 14.183594 L 10.363281 13.164062 L 10.363281 14.183594 L 10.039062 14.183594 L 10.039062 12.847656 "
       id="path1681" />
    <path
       d="M 12.605469 13.636719 L 12.953125 13.746094 C 12.929688 13.847656 12.894531 13.933594 12.84375 14.003906 C 12.792969 14.070312 12.730469 14.121094 12.65625 14.15625 C 12.582031 14.191406 12.484375 14.207031 12.371094 14.207031 C 12.230469 14.207031 12.113281 14.1875 12.023438 14.144531 C 11.9375 14.101562 11.859375 14.027344 11.796875 13.921875 C 11.730469 13.816406 11.699219 13.679688 11.699219 13.511719 C 11.699219 13.292969 11.753906 13.121094 11.867188 13.003906 C 11.980469 12.882812 12.144531 12.824219 12.351562 12.824219 C 12.515625 12.824219 12.640625 12.859375 12.734375 12.925781 C 12.828125 12.996094 12.898438 13.097656 12.941406 13.242188 L 12.589844 13.320312 C 12.578125 13.28125 12.566406 13.25 12.550781 13.230469 C 12.527344 13.199219 12.5 13.175781 12.46875 13.160156 C 12.4375 13.140625 12.402344 13.132812 12.359375 13.132812 C 12.269531 13.132812 12.199219 13.171875 12.152344 13.246094 C 12.117188 13.304688 12.097656 13.390625 12.097656 13.511719 C 12.097656 13.660156 12.121094 13.761719 12.164062 13.816406 C 12.207031 13.871094 12.269531 13.898438 12.347656 13.898438 C 12.421875 13.898438 12.480469 13.875 12.519531 13.832031 C 12.558594 13.789062 12.585938 13.722656 12.605469 13.636719 "
       id="path1683" />
    <path
       d="M 13.164062 12.847656 L 13.5625 12.847656 L 13.5625 14.183594 L 13.164062 14.183594 L 13.164062 12.847656 "
       id="path1685" />
    <path
       d="M 14.644531 13.964844 L 14.1875 13.964844 L 14.125 14.183594 L 13.71875 14.183594 L 14.203125 12.847656 L 14.640625 12.847656 L 15.125 14.183594 L 14.707031 14.183594 L 14.644531 13.964844 M 14.558594 13.675781 L 14.417969 13.195312 L 14.277344 13.675781 L 14.558594 13.675781 "
       id="path1687" />
  </g>
</svg>

<svg xmlns="http://www.w3.org/2000/svg" xmlns:xlink="http://www.w3.org/1999/xlink" viewBox="0 0 22 22">
 <defs>
  <filter width="22" x="0" y="0" height="22" filterUnits="objectBoundingBox" id="alpha">
   <feColorMatrix values="0 0 0 0 1 0 0 0 0 1 0 0 0 0 1 0 0 0 1 0" in="SourceGraphic" type="matrix"/>
  </filter>
  <g id="surface6">
   <path d="m 4.191 18.793 l -4.191 0 l 0 -2.75 l 4.191 0 Z" style="fill:url(#radial0)"/>
   <path d="m 15.516 16.04 l 4.191 0 l 0 2.75 l -4.191 0 Z" style="fill:url(#radial1)"/>
   <path d="m 4.191 16.04 l 11.324 0 l 0 2.75 l -11.324 0 Z" style="fill:url(#linear0)"/>
  </g>
  <linearGradient id="linear1" y1="13" y2="38" gradientUnits="userSpaceOnUse" x2="0">
   <stop style="stop-color:#fff;stop-opacity:0.6"/>
   <stop offset="1" style="stop-color:#fff;stop-opacity:0"/>
  </linearGradient>
  <linearGradient gradientTransform="scale(.45833)" id="linear3" y1="24" y2="28" gradientUnits="userSpaceOnUse" x2="0">
   <stop style="stop-color:#ecd562"/>
   <stop offset="1" style="stop-color:#df8122"/>
  </linearGradient>
  <linearGradient gradientTransform="matrix(.41933 0 0 .34375 -.41933 2.29167)" id="linear0" y1="48" y2="40" gradientUnits="userSpaceOnUse" x2="0">
   <stop style="stop-color:#000;stop-opacity:0"/>
   <stop offset="0.5" style="stop-color:#000"/>
   <stop offset="1" style="stop-color:#000;stop-opacity:0"/>
  </linearGradient>
  <linearGradient id="linear2" y1="17" y2="18" gradientUnits="userSpaceOnUse" x2="0">
   <stop style="stop-color:#fdfdfd"/>
   <stop offset="1" style="stop-color:#9f9f9f"/>
  </linearGradient>
  <mask id="mask0">
   <g style="filter:url(#alpha)">
    <rect width="22" height="22" style="fill:#000;fill-opacity:0.302"/>
   </g>
  </mask>
  <radialGradient cx="9.286" cy="18.04" gradientTransform="matrix(2.65854 -.03734 .0168 1.19584 -15.70336 .10714)" id="radial3" r="17" gradientUnits="userSpaceOnUse">
   <stop style="stop-color:#efefef"/>
   <stop offset="1" style="stop-color:#c8c8c8"/>
  </radialGradient>
  <radialGradient cx="12.156" cy="40.48" gradientTransform="matrix(1.81157 -.03214 .02008 1.13174 -10.67818 -10.72976)" id="radial2" r="22" gradientUnits="userSpaceOnUse" xlink:href="#radial3"/>
  <radialGradient cx="1" cy="44" gradientTransform="matrix(.83865 0 0 .275 14.67636 5.31667)" id="radial1" r="5" gradientUnits="userSpaceOnUse">
   <stop style="stop-color:#000"/>
   <stop offset="1" style="stop-color:#000;stop-opacity:0"/>
  </radialGradient>
  <radialGradient cx="1" cy="44" gradientTransform="matrix(-.83865 0 0 -.275 5.03189 29.51667)" id="radial0" r="5" gradientUnits="userSpaceOnUse" xlink:href="#radial1"/>
 </defs>
 <use xlink:href="#surface6" style="mask:url(#mask0)"/>
 <g style="stroke-linecap:round">
  <path d="m 3.503 12.503 c -0.554 0 -1.01 0.443 -1.01 0.997 l 0 24 c 0 0.554 0.452 0.997 1.01 0.997 l 34.994 0 c 0.554 0 1.01 -0.443 1.01 -0.997 c -0.017 -0.503 0.494 -0.989 0.997 -0.997 l 3.997 0 c 0.554 0 1.01 -0.452 1.01 -1.01 l 0 -19.994 c 0 -0.554 -0.452 -1.01 -1.01 -1.01 l -3.997 0 c -0.503 0.009 -0.972 -0.494 -0.997 -0.997 c 0 -0.554 -0.452 -0.997 -1.01 -0.997 Z" transform="scale(.45833)" style="fill:url(#radial2);stroke:#8c8c8c"/>
  <path d="m 3.503 13.466 c -0.034 0 -0.034 0 -0.034 0.034 l 0 24 c 0 0.034 0 0.034 0.034 0.034 l 34.994 0 c 0.017 0 0.034 0 0.034 0 c 0 -0.009 0 -0.017 0 -0.034 c -0.009 -0.58 0.256 -1.048 0.597 -1.372 c 0.341 -0.341 0.784 -0.58 1.338 -0.597 c 0.017 0 0.026 0 0.034 0 l 3.997 0 c 0.034 0 0.034 0 0.034 -0.034 l 0 -19.994 c 0 -0.034 0 -0.034 -0.034 -0.034 l -3.997 0 c -0.58 0 -1.04 -0.256 -1.372 -0.597 c -0.332 -0.332 -0.563 -0.776 -0.597 -1.313 c 0 -0.017 0 -0.043 0 -0.06 c 0 -0.034 0 -0.034 -0.034 -0.034 Z" transform="scale(.45833)" style="fill:none;stroke:url(#linear1)"/>
  <path d="m 3.503 16.5 l 31.994 0 c 0.554 0 1.01 0.443 1.01 0.997 l 0 16.01 c 0 0.554 -0.452 0.997 -1.01 0.997 l -31.994 0" transform="scale(.45833)" style="fill:url(#radial3);stroke:url(#linear2)"/>
 </g>
 <g style="fill:#d6b943">
  <path d="m 3.668 5.973 l 4.582 0 l 0 0.445 l -4.582 0 Z"/>
  <path d="m 3.668 16.973 l 4.582 0 l 0 0.445 l -4.582 0 Z"/>
 </g>
 <path d="m 5.04 8.707 l 10.08 0 c 0.254 0 0.457 0.207 0.457 0.461 l 0 5.04 c 0 0.254 -0.203 0.461 -0.457 0.461 l -10.08 0 c -0.254 0 -0.461 -0.207 -0.461 -0.461 l 0 -5.04 c 0 -0.254 0.207 -0.461 0.461 -0.461 Z" style="fill:#606060"/>
 <path d="m 7.332 11.457 l 7.793 0 l 0 0.918 l -7.793 0 Z" style="fill:url(#linear3)"/>
 <g style="fill:#fff">
  <path d="m 7.332 12.848 l 0.664 0 c 0.145 0 0.254 0.035 0.324 0.105 c 0.074 0.07 0.109 0.172 0.109 0.305 c 0 0.137 -0.039 0.242 -0.117 0.316 c -0.078 0.078 -0.199 0.113 -0.359 0.113 l -0.219 0 l 0 0.496 l -0.402 0 l 0 -1.336 m 0.402 0.57 l 0.098 0 c 0.078 0 0.133 -0.016 0.164 -0.043 c 0.031 -0.027 0.043 -0.063 0.043 -0.105 c 0 -0.043 -0.012 -0.078 -0.039 -0.105 c -0.027 -0.031 -0.078 -0.043 -0.152 -0.043 l -0.113 0 l 0 0.297"/>
  <path d="m 9.5 13.637 l 0.348 0.109 c -0.023 0.102 -0.059 0.188 -0.109 0.258 c -0.051 0.066 -0.113 0.117 -0.188 0.152 c -0.074 0.035 -0.172 0.051 -0.285 0.051 c -0.141 0 -0.258 -0.02 -0.348 -0.063 c -0.086 -0.043 -0.164 -0.117 -0.227 -0.223 c -0.066 -0.105 -0.098 -0.242 -0.098 -0.41 c 0 -0.219 0.055 -0.391 0.168 -0.508 c 0.113 -0.121 0.277 -0.18 0.484 -0.18 c 0.164 0 0.289 0.035 0.383 0.102 c 0.094 0.07 0.164 0.172 0.207 0.316 l -0.352 0.078 c -0.012 -0.039 -0.023 -0.07 -0.039 -0.09 c -0.023 -0.031 -0.051 -0.055 -0.082 -0.07 c -0.031 -0.02 -0.066 -0.027 -0.109 -0.027 c -0.09 0 -0.16 0.039 -0.207 0.113 c -0.035 0.059 -0.055 0.145 -0.055 0.266 c 0 0.148 0.023 0.25 0.066 0.305 c 0.043 0.055 0.105 0.082 0.184 0.082 c 0.074 0 0.133 -0.023 0.172 -0.066 c 0.039 -0.043 0.066 -0.109 0.086 -0.195"/>
  <path d="m 10.04 12.848 l 0.523 0 l 0.203 0.813 l 0.203 -0.813 l 0.523 0 l 0 1.336 l -0.328 0 l 0 -1.02 l -0.254 1.02 l -0.293 0 l -0.254 -1.02 l 0 1.02 l -0.324 0 l 0 -1.336"/>
  <path d="m 12.605 13.637 l 0.348 0.109 c -0.023 0.102 -0.059 0.188 -0.109 0.258 c -0.051 0.066 -0.113 0.117 -0.188 0.152 c -0.074 0.035 -0.172 0.051 -0.285 0.051 c -0.141 0 -0.258 -0.02 -0.348 -0.063 c -0.086 -0.043 -0.164 -0.117 -0.227 -0.223 c -0.066 -0.105 -0.098 -0.242 -0.098 -0.41 c 0 -0.219 0.055 -0.391 0.168 -0.508 c 0.113 -0.121 0.277 -0.18 0.484 -0.18 c 0.164 0 0.289 0.035 0.383 0.102 c 0.094 0.07 0.164 0.172 0.207 0.316 l -0.352 0.078 c -0.012 -0.039 -0.023 -0.07 -0.039 -0.09 c -0.023 -0.031 -0.051 -0.055 -0.082 -0.07 c -0.031 -0.02 -0.066 -0.027 -0.109 -0.027 c -0.09 0 -0.16 0.039 -0.207 0.113 c -0.035 0.059 -0.055 0.145 -0.055 0.266 c 0 0.148 0.023 0.25 0.066 0.305 c 0.043 0.055 0.105 0.082 0.184 0.082 c 0.074 0 0.133 -0.023 0.172 -0.066 c 0.039 -0.043 0.066 -0.109 0.086 -0.195"/>
  <path d="m 13.164 12.848 l 0.398 0 l 0 1.336 l -0.398 0 l 0 -1.336"/>
  <path d="m 14.645 13.965 l -0.457 0 l -0.063 0.219 l -0.406 0 l 0.484 -1.336 l 0.438 0 l 0.484 1.336 l -0.418 0 l -0.063 -0.219 m -0.086 -0.289 l -0.141 -0.48 l -0.141 0.48 l 0.281 0"/>
 </g>
</svg>
